X:188
T:Asherstone Schottisch. Le4.188
M:2/4
L:1/16
B:L.Leadley MS#4 c1850
Z:vmp. Peter Dunk 2016
Q:1/4=90
K:G
dc|(B2{BA}G2)(A2{AG}F2)|G2(D2 D)GBd|e2(F2 F)Acf|g2B2B2 (dc)|(B2{BA}G2)(A2{AG}F2)|
G2(D2 D)GBd|e2(E2 _E)DGB|(A4 G2)::gf|{f/}e^def gefg|(3gab d4 ed|
cBcd eABc|(3Bcd B4 gf|e^def gefg|(3gab d4 ed|cBAG GFBA|A2G2!D.C.!G2:|
K:C
|:cd|e2^de a2ge|g2fd A2Bc|d2^cd g2fB|d2cG E2cd|
e2^de a2ge|g2fd A2Bc|d^cde feAB|d2c2c2!D.C.!:|

